X: 4302
M: C
L: 1/8
K: Am
E2 |:\
[1,3 BABc edcB | A^GAc BGE2 :|\
[2,4 dfed cB(A^G) | A2a2 A2 |]
c2(cB) cdef | (g^f)ga gec2 |\
[1 dcde gfed | (cB)ce dBG2 :|\
[2 dfed cBAB | d2c2 c2 |]


